src/static/logos/amex.svg

<?xml version="1.0" encoding="UTF-8"?>
<svg width="256px" height="256px" viewBox="0 0 256 256" version="1.1" xmlns="http://www.w3.org/2000/svg" xmlns:xlink="http://www.w3.org/1999/xlink" preserveAspectRatio="xMidYMid">
    <defs>
        <path d="M2.27464661e-14,0 L254.693878,3.04336596e-14 L254.693878,160.344259 C255.3267,161.198982 255.762422,162.157626 256,163.39634 L256,168.36419 C255.762422,169.608049 255.3267,170.691008 254.693878,171.604678 L254.693878,256 L0,256 L0,192 L0,64 L2.27464661e-14,0 Z" id="path-1"></path>
        <radialGradient cx="16.6089694%" cy="17.3718345%" fx="16.6089694%" fy="17.3718345%" r="118.520308%" id="radialGradient-3">
            <stop stop-color="#88CDE7" offset="0%"></stop>
            <stop stop-color="#2274AD" offset="100%"></stop>
        </radialGradient>
    </defs>
    <g stroke="none" stroke-width="1" fill="none" fill-rule="evenodd">
        <g>
			<mask id="mask-2" fill="white">
				<use xlink:href="#path-1"></use>
			</mask>
			<g></g>
			<polygon fill="url(#radialGradient-3)" mask="url(#mask-2)" points="0 256 256 256 256 0 0 0"></polygon>
		</g>
		<path d="M22.9367474,110.957581 L18.0381744,99.0628738 L13.1694447,110.957581 L22.9367474,110.957581 Z M130.730933,106.238068 C129.763156,106.788039 128.599265,106.847725 127.196627,106.847725 L118.507949,106.847725 L118.507949,100.205448 L127.311738,100.205448 C128.569422,100.205448 129.874002,100.252345 130.722406,100.712785 C131.63476,101.168962 132.214574,102.094106 132.214574,103.36458 C132.214574,104.681951 131.651814,105.709415 130.730933,106.238068 L130.730933,106.238068 Z M192.677204,110.957581 L187.748788,99.0628738 L182.850215,110.957581 L192.677204,110.957581 Z M77.2047505,123.858436 L69.876076,123.858436 L69.8334427,100.465511 L59.4777997,123.858436 L53.2021692,123.858436 L42.7911028,100.414351 L42.7911028,123.858436 L28.2488639,123.858436 L25.5118023,117.190578 L10.6199698,117.190578 L7.85732813,123.858436 L0.085266719,123.858436 L12.8710112,93.951134 L23.5080344,93.951134 L35.6628051,122.285265 L35.6628051,93.951134 L47.3486089,93.951134 L56.6938413,114.257403 L65.2972532,93.951134 L77.2047505,93.951134 L77.2047505,123.858436 Z M106.404338,123.858436 L82.5211304,123.858436 L82.5211304,93.951134 L106.404338,93.951134 L106.404338,100.205448 L89.6877981,100.205448 L89.6877981,105.572988 L105.995058,105.572988 L105.995058,111.720718 L89.6877981,111.695138 L89.6877981,117.668072 L106.404338,117.668072 L106.404338,123.858436 Z M140.088955,102.030156 C140.088955,106.758195 136.908507,109.25651 135.066746,109.994067 C136.627127,110.595198 137.953024,111.626925 138.575471,112.522225 C139.585882,113.980286 139.786258,115.344554 139.786258,117.975032 L139.786258,123.858436 L132.572694,123.858436 L132.551377,120.098173 C132.551377,118.320362 132.721911,115.728254 131.39175,114.295773 C130.347233,113.225676 128.774062,113.003982 126.19048,113.003982 L118.507949,113.003982 L118.507949,123.858436 L111.362598,123.858436 L111.362598,93.951134 L127.823338,93.951134 C131.4557,93.951134 134.158655,94.0705074 136.47791,95.4006682 C138.741741,96.7223024 140.088955,98.6791736 140.088955,102.030156 L140.088955,102.030156 Z M144.245708,123.858436 L151.540276,123.858436 L151.540276,93.9468707 L144.245708,93.9468707 L144.245708,123.858436 Z M236.167494,123.858436 L226.025018,123.858436 L212.46761,101.433289 L212.49319,123.858436 L197.929634,123.858436 L195.141412,117.190578 L180.270897,117.190578 L177.597785,123.858436 L169.228856,123.858436 C165.741448,123.858436 161.333158,123.082508 158.864687,120.562877 C156.323739,118.009139 155.040474,114.58568 155.040474,109.132873 C155.040474,104.699004 155.820665,100.648835 158.890267,97.4470695 C161.205258,95.0596014 164.816304,93.951134 169.748983,93.951134 L176.659851,93.951134 L176.659851,100.354665 L169.902464,100.354665 C167.289039,100.354665 165.801134,100.755418 164.37718,102.141002 C163.174919,103.40295 162.322252,105.781891 162.322252,108.92397 C162.322252,112.134262 162.961753,114.41941 164.308967,115.949947 C165.383327,117.122365 167.391359,117.476222 169.280016,117.476222 L172.494572,117.476222 L182.568835,93.951134 L193.278334,93.951134 L205.390472,122.242631 L205.390472,93.951134 L216.291822,93.951134 L228.855873,114.77753 L228.855873,93.951134 L236.167494,93.951134 L236.167494,123.858436 Z M0,129.750366 L12.2187208,129.750366 L14.9728358,123.082508 L21.1376196,123.082508 L23.8832079,129.750366 L47.9284226,129.750366 L47.9284226,124.659943 L50.0771439,129.767419 L62.5388749,129.767419 L64.6790695,124.595993 L64.6790695,129.750366 L124.425459,129.750366 L124.395616,118.840489 L125.55098,118.840489 C126.365277,118.857543 126.608287,118.951336 126.608287,120.294287 L126.608287,129.750366 L157.487629,129.750366 L157.487629,127.213681 C159.981681,128.552368 163.86558,129.750366 168.947476,129.750366 L181.954914,129.750366 L184.730346,123.082508 L190.903656,123.082508 L193.653508,129.750366 L218.67929,129.750366 L218.67929,123.427839 L222.477922,129.750366 L242.519865,129.750366 L242.519865,88.0250971 L222.678299,88.0250971 L222.678299,92.9663034 L219.907131,88.0250971 L199.511332,88.0250971 L199.511332,92.9663034 L196.961857,88.0250971 L169.429233,88.0250971 C164.816304,88.0250971 160.753345,88.6603341 157.487629,90.4594619 L157.487629,88.0250971 L138.511521,88.0250971 L138.511521,90.4594619 C136.40117,88.6091741 133.566051,88.0250971 130.423973,88.0250971 L61.0126006,88.0250971 L56.3357211,98.8156003 L51.5778382,88.0250971 L29.7197148,88.0250971 L29.7197148,92.9663034 L27.2938767,88.0250971 L8.65457195,88.0250971 L0,107.845346 L0,129.750366 Z" fill="#FFFFFF"></path>
		<path d="M254.705373,151.820026 L241.651038,151.820026 C240.350721,151.820026 239.485264,151.871186 238.786077,152.352943 C238.03573,152.830437 237.720243,153.576521 237.720243,154.527245 C237.720243,155.635712 238.359743,156.403112 239.310467,156.735653 C240.026707,156.999979 240.858058,157.068193 242.077372,157.085246 L245.905848,157.183303 C249.811063,157.29415 252.441542,157.95923 254.040293,159.583561 C254.308883,159.822308 254.500733,160.107951 254.705373,160.338172 L254.705373,151.820026 Z M254.705373,171.546482 C252.948879,174.095957 249.568053,175.379221 244.980704,175.379221 L231.167495,175.379221 L231.167495,168.95011 L244.93807,168.95011 C246.281021,168.95011 247.244535,168.766787 247.837139,168.20829 C248.318896,167.769166 248.685543,167.091296 248.685543,166.268472 C248.685543,165.385961 248.318896,164.686774 247.820086,164.286021 C247.261589,163.81279 246.524031,163.62094 245.287664,163.603887 C238.577173,163.394983 230.199718,163.81279 230.199718,154.352448 C230.199718,150.016635 232.966623,145.450602 240.444514,145.450602 L254.705373,145.450602 L254.705373,139.498985 L241.459188,139.498985 C237.460179,139.498985 234.565374,140.445446 232.497656,141.954667 L232.497656,139.498985 L212.916154,139.498985 C209.816709,139.498985 206.145977,140.279176 204.380956,141.954667 L204.406536,139.498985 L169.442918,139.498985 L169.442918,141.954667 C166.658959,139.946636 161.977817,139.498985 159.782198,139.498985 L136.755921,139.498985 L136.755921,141.954667 C134.54325,139.814472 129.67452,139.498985 126.677395,139.498985 L100.867159,139.498985 L94.9709651,145.911043 L89.4414184,139.498985 L50.8880715,139.498985 L50.8880715,181.249834 L88.7209146,181.249834 L94.8089583,174.761037 L100.543146,181.249834 L123.829487,181.266888 L123.829487,171.448425 L126.135951,171.448425 C129.209817,171.491058 132.884812,171.380212 136.099367,169.990364 L136.099367,181.249834 L155.322749,181.249834 L155.322749,170.365538 L156.247893,170.365538 C157.4331,170.365538 157.552474,170.433751 157.552474,171.606168 L157.552474,181.249834 L215.968703,181.249834 C219.652225,181.249834 223.523334,180.29911 225.689109,178.593776 L225.689109,181.249834 L244.22183,181.249834 C248.080149,181.249834 251.827621,180.716917 254.705373,179.33986 L254.705373,171.546482 Z M226.170866,159.583561 C227.56924,161.033095 228.31106,162.862066 228.31106,165.927405 C228.31106,172.382096 224.282208,175.379221 217.085697,175.379221 L203.140325,175.379221 L203.140325,168.95011 L217.021747,168.95011 C218.394541,168.95011 219.345265,168.766787 219.967712,168.20829 C220.440942,167.769166 220.790536,167.091296 220.790536,166.268472 C220.790536,165.385961 220.406835,164.686774 219.916552,164.286021 C219.366582,163.81279 218.620498,163.62094 217.379867,163.603887 C210.67364,163.394983 202.321764,163.81279 202.321764,154.352448 C202.321764,150.016635 205.046036,145.450602 212.515401,145.450602 L226.870053,145.450602 L226.870053,151.820026 L213.773085,151.820026 C212.455714,151.820026 211.598783,151.871186 210.882543,152.352943 C210.106616,152.830437 209.816709,153.576521 209.816709,154.527245 C209.816709,155.635712 210.481789,156.403112 211.38988,156.735653 C212.123174,156.999979 212.916154,157.068193 214.148258,157.085246 L218.002314,157.183303 C221.90753,157.29415 224.546535,157.95923 226.170866,159.583561 L226.170866,159.583561 Z M161.645276,157.750327 C160.707342,158.300297 159.509345,158.35572 158.132287,158.35572 L149.439346,158.35572 L149.439346,151.653756 L158.247398,151.653756 C159.509345,151.653756 160.805399,151.679336 161.645276,152.16962 C162.574684,152.672694 163.128917,153.593574 163.128917,154.885365 C163.128917,156.151576 162.574684,157.183303 161.645276,157.750327 L161.645276,157.750327 Z M165.968299,161.472219 C167.558523,162.047769 168.858841,163.105077 169.468498,163.97906 C170.474645,165.445648 170.640915,166.809915 170.649442,169.440394 L170.649442,175.379221 L163.487037,175.379221 L163.487037,171.640275 C163.487037,169.824094 163.661834,167.168036 162.323147,165.786715 C161.291419,164.686774 159.692668,164.443764 157.092034,164.443764 L149.439346,164.443764 L149.439346,175.379221 L142.264151,175.379221 L142.264151,145.450602 L158.758998,145.450602 C162.39136,145.450602 165.030365,145.599819 167.370936,146.86603 C169.626241,148.217507 171.024615,150.114692 171.024615,153.521097 C171.024615,158.274717 167.852693,160.713345 165.968299,161.472219 L165.968299,161.472219 Z M175.002308,145.450602 L198.876989,145.450602 L198.876989,151.653756 L182.126342,151.653756 L182.126342,157.068193 L198.459182,157.068193 L198.459182,163.177553 L182.126342,163.177553 L182.126342,169.124907 L198.876989,169.159014 L198.876989,175.379221 L175.002308,175.379221 L175.002308,145.450602 Z M126.775452,159.251021 L117.515486,159.251021 L117.515486,151.653756 L126.852192,151.653756 C129.43151,151.653756 131.217848,152.68122 131.217848,155.320225 C131.217848,157.899543 129.516777,159.251021 126.775452,159.251021 L126.775452,159.251021 Z M110.395715,172.663476 L99.4389412,160.474598 L110.395715,148.665158 L110.395715,172.663476 Z M82.0530572,169.124907 L64.4753232,169.124907 L64.4753232,163.177553 L80.1686627,163.177553 L80.1686627,157.068193 L64.4753232,157.068193 L64.4753232,151.653756 L82.3983874,151.653756 L90.2045555,160.355225 L82.0530572,169.124907 Z M138.887589,155.320225 C138.887589,163.603887 132.705752,165.334801 126.438648,165.334801 L117.515486,165.334801 L117.515486,175.379221 L103.638328,175.379221 L94.830275,165.479755 L85.6811561,175.379221 L57.3683422,175.379221 L57.3683422,145.450602 L86.1202797,145.450602 L94.9155417,155.252012 L104.004974,145.450602 L126.852192,145.450602 C132.530955,145.450602 138.887589,147.015247 138.887589,155.320225 L138.887589,155.320225 Z" fill="#FFFFFF"></path>
		<path d="M140.088955,102.034419 C140.088955,106.766722 136.91277,109.25651 135.075272,109.994067 C136.635653,110.595198 137.961551,111.635451 138.583998,112.522225 C139.594408,113.988813 139.790522,115.344554 139.790522,117.983559 L139.790522,123.858436 L132.581221,123.858436 L132.551377,120.102437 C132.551377,118.320362 132.730438,115.728254 131.396013,114.295773 C130.347233,113.225676 128.782588,113.003982 126.19048,113.003982 L118.516475,113.003982 L118.516475,123.858436 L111.362598,123.858436 L111.362598,93.951134 L127.831865,93.951134 C131.4557,93.951134 134.162918,94.0705074 136.47791,95.4006682 C138.750268,96.7223024 140.088955,98.6791736 140.088955,102.034419" fill="#2F9BCA"></path>
		<polyline fill="#2EA3D0" points="106.412865 123.858436 82.5211304 123.858436 82.5211304 93.9468707 106.412865 93.9468707 106.412865 100.205448 89.6877981 100.205448 89.6877981 105.572988 105.995058 105.572988 105.995058 111.720718 89.6877981 111.703665 89.6877981 117.676598 106.412865 117.676598"></polyline>
		<polyline fill="#55B2D8" points="77.2047505 123.858436 69.876076 123.858436 69.8334427 100.465511 59.4863263 123.858436 53.2106958 123.858436 42.7911028 100.422878 42.7911028 123.858436 28.2531273 123.858436 25.5118023 117.194842 10.6199698 117.194842 7.8658548 123.858436 0.089530055 123.858436 12.8752746 93.9468707 23.5080344 93.9468707 35.6628051 122.289528 35.6628051 93.9468707 47.3528723 93.9468707 56.702368 114.26593 65.2972532 93.9468707 77.2047505 93.9468707"></polyline>
		<path d="M130.73946,106.238068 C129.767419,106.796565 128.603528,106.847725 127.209417,106.847725 L118.516475,106.847725 L118.516475,100.205448 L127.320264,100.205448 C128.577948,100.205448 129.878266,100.252345 130.722406,100.721311 C131.643287,101.168962 132.218837,102.094106 132.218837,103.368843 C132.218837,104.681951 131.66034,105.717941 130.73946,106.238068" fill="#FFFFFF"></path>
		<polyline fill="#FFFFFF" points="22.9410107 110.957581 18.0381744 99.0628738 13.1694447 110.957581"></polyline>
	</g>
</svg>

<svg width="256" height="256" xmlns="http://www.w3.org/2000/svg" xmlns:xlink="http://www.w3.org/1999/xlink" preserveAspectRatio="xMidYMid"><defs><radialGradient cx="16.609%" cy="17.372%" fx="16.609%" fy="17.372%" r="118.52%" id="b"><stop stop-color="#88CDE7" offset="0%"/><stop stop-color="#2274AD" offset="100%"/></radialGradient><path d="M0 0h254.694v160.344c.633.855 1.068 1.814 1.306 3.052v4.968c-.238 1.244-.673 2.327-1.306 3.24V256H0V0z" id="a"/></defs><g fill="none" fill-rule="evenodd"><mask id="c" fill="#fff"><use xlink:href="#a"/></mask><path fill="url(#b)" mask="url(#c)" d="M0 256h256V0H0z"/><path d="M22.937 110.958l-4.899-11.895-4.869 11.895h9.768zm107.794-4.72c-.968.55-2.132.61-3.534.61h-8.69v-6.643h8.805c1.257 0 2.562.047 3.41.508.913.456 1.493 1.381 1.493 2.652 0 1.317-.563 2.344-1.484 2.873zm61.946 4.72l-4.928-11.895-4.899 11.895h9.827zm-115.472 12.9h-7.329l-.043-23.392-10.355 23.392h-6.276l-10.41-23.444v23.444H28.248l-2.737-6.667H10.62l-2.763 6.667H.085l12.786-29.907h10.637l12.155 28.334V93.951h11.686l9.345 20.306 8.603-20.306h11.908v29.907zm29.2 0H82.52V93.951h23.883v6.254H89.688v5.368h16.307v6.148l-16.307-.026v5.973h16.716v6.19zm33.684-21.828c0 4.728-3.18 7.227-5.022 7.964 1.56.601 2.886 1.633 3.508 2.528 1.01 1.458 1.211 2.823 1.211 5.453v5.883h-7.213l-.022-3.76c0-1.778.17-4.37-1.16-5.802-1.044-1.07-2.617-1.292-5.2-1.292h-7.683v10.854h-7.145V93.951h16.46c3.633 0 6.336.12 8.655 1.45 2.264 1.321 3.611 3.278 3.611 6.63zm4.157 21.828h7.294V93.947h-7.294v29.911zm91.921 0h-10.142l-13.557-22.425.025 22.425H197.93l-2.789-6.667h-14.87l-2.673 6.667h-8.37c-3.487 0-7.895-.775-10.363-3.295-2.541-2.554-3.825-5.977-3.825-11.43 0-4.434.78-8.484 3.85-11.686 2.315-2.387 5.926-3.496 10.859-3.496h6.91v6.404h-6.757c-2.613 0-4.1.4-5.525 1.786-1.202 1.262-2.055 3.64-2.055 6.783 0 3.21.64 5.495 1.987 7.026 1.074 1.172 3.082 1.526 4.971 1.526h3.215l10.074-23.525h10.71l12.111 28.292V93.95h10.902l12.564 20.827V93.95h7.311v29.907zM0 129.75h12.219l2.754-6.667h6.165l2.745 6.667h24.045v-5.09l2.15 5.107h12.46l2.141-5.171v5.154h59.746l-.03-10.91h1.156c.814.018 1.057.111 1.057 1.454v9.456h30.88v-2.536c2.494 1.338 6.378 2.536 11.46 2.536h13.007l2.775-6.667h6.174l2.75 6.667h25.025v-6.322l3.799 6.322h20.042V88.025h-19.842v4.941l-2.77-4.94H199.51v4.94l-2.55-4.94h-27.53c-4.613 0-8.676.634-11.941 2.433v-2.434h-18.976v2.434c-2.11-1.85-4.946-2.434-8.088-2.434H61.013l-4.677 10.79-4.758-10.79H29.72v4.941l-2.426-4.94H8.654L0 107.845v21.904zm254.705 22.07h-13.054c-1.3 0-2.166.051-2.865.533-.75.477-1.066 1.224-1.066 2.174 0 1.109.64 1.876 1.59 2.209.717.264 1.548.332 2.767.35l3.829.097c3.905.111 6.536.776 8.134 2.4.269.24.46.525.665.755v-8.518zm0 19.726c-1.756 2.55-5.137 3.833-9.724 3.833h-13.814v-6.429h13.771c1.343 0 2.307-.183 2.9-.742.48-.439.848-1.117.848-1.94 0-.882-.367-1.581-.866-1.982-.558-.473-1.296-.665-2.532-.682-6.71-.209-15.088.209-15.088-9.252 0-4.335 2.767-8.901 10.245-8.901h14.26v-5.952H241.46c-3.999 0-6.894.946-8.961 2.456v-2.456h-19.582c-3.1 0-6.77.78-8.535 2.456l.026-2.456h-34.964v2.456c-2.784-2.008-7.465-2.456-9.66-2.456h-23.027v2.456c-2.213-2.14-7.081-2.456-10.079-2.456h-25.81l-5.896 6.412-5.53-6.412H50.888v41.75h37.833l6.088-6.488 5.734 6.489 23.286.017v-9.819h2.307c3.074.043 6.749-.068 9.963-1.458v11.26h19.224v-10.884h.925c1.185 0 1.304.068 1.304 1.24v9.644h58.417c3.683 0 7.554-.95 9.72-2.656v2.656h18.533c3.858 0 7.606-.533 10.483-1.91v-7.794zm-28.534-11.962c1.398 1.45 2.14 3.278 2.14 6.343 0 6.455-4.029 9.452-11.225 9.452H203.14v-6.429h13.882c1.373 0 2.323-.183 2.946-.742a2.63 2.63 0 00.823-1.94c0-.882-.384-1.581-.874-1.982-.55-.473-1.297-.665-2.537-.682-6.706-.209-15.058.209-15.058-9.252 0-4.335 2.724-8.901 10.193-8.901h14.355v6.369h-13.097c-1.317 0-2.174.051-2.89.533-.776.477-1.066 1.224-1.066 2.174 0 1.109.665 1.876 1.573 2.209.733.264 1.526.332 2.758.35l3.854.097c3.906.111 6.545.776 8.169 2.4zm-64.526-1.834c-.938.55-2.136.606-3.513.606h-8.693v-6.702h8.808c1.262 0 2.558.025 3.398.516.93.503 1.484 1.424 1.484 2.715 0 1.267-.554 2.298-1.484 2.865zm4.323 3.722c1.59.576 2.89 1.633 3.5 2.507 1.007 1.467 1.173 2.83 1.181 5.461v5.94h-7.162v-3.74c0-1.816.175-4.472-1.164-5.853-1.032-1.1-2.63-1.343-5.231-1.343h-7.653v10.935h-7.175v-29.928h16.495c3.632 0 6.271.149 8.612 1.415 2.255 1.352 3.654 3.249 3.654 6.655 0 4.754-3.172 7.192-5.057 7.951zm9.034-16.021h23.875v6.203h-16.75v5.414h16.332v6.11h-16.333v5.947l16.751.034v6.22h-23.875v-29.928zm-48.227 13.8h-9.26v-7.597h9.337c2.58 0 4.366 1.027 4.366 3.666 0 2.58-1.701 3.931-4.443 3.931zm-16.38 13.412L99.44 160.475l10.957-11.81v23.998zm-28.342-3.538H64.475v-5.947H80.17v-6.11H64.475v-5.414h17.923l7.807 8.701-8.152 8.77zm56.835-13.805c0 8.284-6.182 10.015-12.45 10.015h-8.923v10.044h-13.877l-8.808-9.9-9.149 9.9H57.368v-29.928H86.12l8.796 9.801 9.089-9.801h22.847c5.679 0 12.036 1.564 12.036 9.87z" fill="#FFF"/><path d="M140.089 102.034c0 4.733-3.176 7.223-5.014 7.96 1.56.601 2.887 1.641 3.509 2.528 1.01 1.467 1.207 2.823 1.207 5.462v5.874h-7.21l-.03-3.756c0-1.782.18-4.374-1.155-5.806-1.049-1.07-2.613-1.292-5.206-1.292h-7.674v10.854h-7.153V93.951h16.469c3.624 0 6.33.12 8.646 1.45 2.272 1.321 3.611 3.278 3.611 6.633" fill="#2F9BCA"/><path fill="#2EA3D0" d="M106.413 123.858H82.52V93.947h23.892v6.258H89.688v5.368h16.307v6.148l-16.307-.017v5.973h16.725"/><path fill="#55B2D8" d="M77.205 123.858h-7.329l-.043-23.392-10.347 23.392h-6.275l-10.42-23.435v23.435H28.253l-2.741-6.663H10.62l-2.754 6.663H.09l12.785-29.911h10.633l12.155 28.343V93.947h11.69l9.35 20.319 8.594-20.32h11.908"/><path d="M130.74 106.238c-.973.559-2.136.61-3.53.61h-8.694v-6.643h8.804c1.258 0 2.558.047 3.402.516.921.448 1.497 1.373 1.497 2.648 0 1.313-.559 2.349-1.48 2.87m-107.798 4.719l-4.903-11.895-4.869 11.895" fill="#FFF"/></g></svg>
